public/logos/KO.svg

<?xml version="1.0" encoding="UTF-8"?>
<svg xmlns="http://www.w3.org/2000/svg" xmlns:xlink="http://www.w3.org/1999/xlink" width="176pt" height="21.29pt" viewBox="0 0 176 21.29" version="1.1">
<defs>
<clipPath id="clip1">
  <path d="M 0 0 L 34 0 L 34 21.289062 L 0 21.289062 Z M 0 0 "/>
</clipPath>
</defs>
<g id="surface1">
<path style=" stroke:none;fill-rule:evenodd;fill:rgb(11.680603%,40.133667%,63.813782%);fill-opacity:1;" d="M 3.558594 11.757812 C 3.460938 12 3.480469 12.242188 3.605469 12.488281 C 14.832031 12.578125 22.605469 16.164062 29.410156 20.730469 C 29.738281 20.726562 29.921875 20.601562 29.785156 20.195312 C 27.742188 18.28125 22.78125 15.246094 22.871094 14.792969 C 23.875 14.054688 25.488281 13.792969 25.304688 13.039062 C 22.339844 12.0625 18.820312 11.539062 14.796875 11.4375 C 15.613281 10.261719 16.414062 9.304688 17.0625 7.808594 C 17.375 8.101562 17.714844 8.292969 18.070312 8.425781 C 19.097656 8.4375 19.386719 8.03125 19.464844 7.507812 C 18.8125 7.507812 18.164062 7.503906 17.511719 7.503906 C 17.34375 7.460938 17.292969 7.324219 17.359375 7.089844 C 19.085938 7.054688 21.242188 7.152344 21.375 6.648438 C 21.382812 6.335938 20.664062 6.039062 20.945312 5.773438 C 21.90625 5.53125 22.566406 5.167969 22.570312 4.542969 C 22.171875 4.738281 21.800781 4.839844 21.628906 4.292969 C 22.046875 3.859375 22.238281 3.371094 22.097656 2.808594 C 21.765625 3.132812 21.429688 3.457031 21.09375 3.78125 C 21.011719 3.101562 21.203125 2.085938 20.207031 2.53125 C 19.519531 3.285156 20.640625 3.992188 20.46875 4.65625 C 19.945312 5.972656 19.261719 6.683594 16.53125 6.671875 C 15.761719 6.660156 14.535156 5.996094 14.582031 5.523438 C 14.378906 5.144531 14.464844 4.617188 14.839844 3.9375 C 14.71875 4.054688 14.59375 4.171875 14.472656 4.289062 C 14.453125 4.105469 14.433594 3.925781 14.414062 3.746094 C 13.898438 4.351562 13.699219 4.847656 13.714844 5.265625 C 13.640625 5.089844 13.746094 5.277344 13.230469 4.496094 C 12.414062 6.484375 15.480469 6.679688 16.054688 7.195312 C 14.734375 7.378906 13.425781 7.25 12.117188 7.183594 C 11.9375 7.300781 11.867188 7.480469 11.90625 7.722656 C 12.566406 8.554688 14.117188 8.453125 14.015625 8.867188 C 13.390625 10.019531 12.480469 10.5 11.511719 11.171875 C 11.042969 11.476562 8.054688 11.617188 3.558594 11.757812 "/>
<g clip-path="url(#clip1)" clip-rule="nonzero">
<path style=" stroke:none;fill-rule:evenodd;fill:rgb(11.680603%,40.133667%,63.813782%);fill-opacity:1;" d="M 16.742188 -0.00390625 C 25.960938 -0.00390625 33.484375 4.78125 33.484375 10.644531 C 33.484375 16.507812 25.960938 21.289062 16.742188 21.289062 C 7.519531 21.289062 0 16.507812 0 10.644531 C 0 4.78125 7.519531 -0.00390625 16.742188 -0.00390625 Z M 17.832031 0.988281 C 26.265625 1.121094 32.566406 5.578125 31.855469 10.910156 C 31.144531 16.242188 23.683594 20.484375 15.25 20.351562 C 6.816406 20.21875 0.515625 15.761719 1.226562 10.429688 C 1.9375 5.097656 9.394531 0.855469 17.832031 0.988281 "/>
</g>
<path style=" stroke:none;fill-rule:nonzero;fill:rgb(11.680603%,40.133667%,63.813782%);fill-opacity:1;" d="M 51.585938 7.324219 L 48.066406 10.953125 L 48.671875 15.195312 L 44.894531 15.195312 L 45.144531 11.460938 L 43.511719 15.195312 L 40.019531 15.195312 L 43.347656 7.324219 L 46.839844 7.324219 L 45.414062 10.695312 L 48.09375 7.324219 L 51.585938 7.324219 "/>
<path style=" stroke:none;fill-rule:nonzero;fill:rgb(11.680603%,40.133667%,63.813782%);fill-opacity:1;" d="M 56.269531 8.875 L 54.257812 13.632812 C 54.222656 13.71875 54.253906 13.789062 54.351562 13.84375 C 54.449219 13.898438 54.585938 13.925781 54.761719 13.925781 C 55.175781 13.925781 55.425781 13.828125 55.511719 13.632812 L 57.523438 8.875 C 57.601562 8.6875 57.433594 8.59375 57.015625 8.59375 C 56.597656 8.59375 56.351562 8.6875 56.269531 8.875 Z M 61.292969 8.21875 L 58.71875 14.300781 C 58.613281 14.554688 58.324219 14.765625 57.851562 14.9375 C 57.378906 15.109375 56.855469 15.195312 56.285156 15.195312 L 52.113281 15.195312 C 51.558594 15.195312 51.117188 15.109375 50.800781 14.941406 C 50.480469 14.773438 50.375 14.558594 50.484375 14.300781 L 53.058594 8.21875 C 53.164062 7.96875 53.445312 7.757812 53.898438 7.585938 C 54.351562 7.414062 54.867188 7.324219 55.441406 7.324219 L 59.613281 7.324219 C 60.183594 7.324219 60.636719 7.414062 60.960938 7.585938 C 61.289062 7.757812 61.398438 7.96875 61.292969 8.21875 "/>
<path style=" stroke:none;fill-rule:nonzero;fill:rgb(11.680603%,40.133667%,63.813782%);fill-opacity:1;" d="M 63.9375 7.324219 L 68.617188 7.324219 L 68.214844 11.378906 L 71.25 7.324219 L 75.902344 7.324219 L 72.574219 15.195312 L 69.082031 15.195312 L 70.972656 10.71875 L 67.621094 15.195312 L 65.5625 15.195312 L 66.046875 10.71875 L 64.101562 15.195312 L 60.609375 15.195312 L 63.9375 7.324219 "/>
<path style=" stroke:none;fill-rule:nonzero;fill:rgb(11.680603%,40.133667%,63.813782%);fill-opacity:1;" d="M 80.210938 15.195312 L 81.988281 10.992188 L 78.359375 15.195312 L 74.867188 15.195312 L 78.195312 7.324219 L 81.296875 7.324219 L 79.4375 11.71875 L 83.148438 7.324219 L 86.640625 7.324219 L 83.3125 15.195312 L 80.210938 15.195312 "/>
<path style=" stroke:none;fill-rule:nonzero;fill:rgb(11.680603%,40.133667%,63.813782%);fill-opacity:1;" d="M 90.917969 12.363281 L 91.828125 8.921875 L 89.824219 12.363281 Z M 90.234375 7.324219 L 94.773438 7.324219 L 93.582031 15.195312 L 90.164062 15.195312 L 90.566406 13.691406 L 89.054688 13.691406 L 88.183594 15.195312 L 84.769531 15.195312 L 90.234375 7.324219 "/>
<path style=" stroke:none;fill-rule:nonzero;fill:rgb(11.680603%,40.133667%,63.813782%);fill-opacity:1;" d="M 101.324219 8.59375 L 100.609375 10.285156 L 101.234375 10.285156 C 101.390625 10.285156 101.546875 10.257812 101.699219 10.199219 C 101.855469 10.140625 101.949219 10.074219 101.980469 10.003906 L 102.457031 8.875 C 102.484375 8.804688 102.4375 8.742188 102.316406 8.683594 C 102.191406 8.625 102.070312 8.59375 101.949219 8.59375 Z M 99.984375 11.765625 L 99.070312 13.925781 L 99.695312 13.925781 C 99.851562 13.925781 100.007812 13.898438 100.160156 13.839844 C 100.316406 13.78125 100.410156 13.714844 100.4375 13.644531 L 101.113281 12.046875 C 101.144531 11.976562 101.097656 11.914062 100.976562 11.851562 C 100.851562 11.792969 100.730469 11.765625 100.609375 11.765625 Z M 95.039062 15.195312 L 98.367188 7.324219 L 105.144531 7.324219 C 105.5625 7.324219 105.878906 7.398438 106.097656 7.539062 C 106.316406 7.679688 106.382812 7.851562 106.296875 8.054688 L 105.351562 10.285156 C 105.28125 10.449219 105.09375 10.59375 104.78125 10.714844 C 104.46875 10.835938 104.101562 10.90625 103.675781 10.917969 C 104.0625 10.949219 104.363281 11.035156 104.574219 11.167969 C 104.789062 11.300781 104.859375 11.449219 104.789062 11.613281 L 103.578125 14.476562 C 103.496094 14.675781 103.285156 14.84375 102.949219 14.984375 C 102.609375 15.125 102.242188 15.195312 101.84375 15.195312 L 95.039062 15.195312 "/>
<path style=" stroke:none;fill-rule:nonzero;fill:rgb(11.680603%,40.133667%,63.813782%);fill-opacity:1;" d="M 110.78125 15.195312 L 112.5625 10.992188 L 108.933594 15.195312 L 105.4375 15.195312 L 108.769531 7.324219 L 111.867188 7.324219 L 110.011719 11.71875 L 113.71875 7.324219 L 117.210938 7.324219 L 113.882812 15.195312 L 110.78125 15.195312 "/>
<path style=" stroke:none;fill-rule:nonzero;fill:rgb(11.680603%,40.133667%,63.813782%);fill-opacity:1;" d="M 121.492188 12.363281 L 122.398438 8.921875 L 120.398438 12.363281 Z M 120.808594 7.324219 L 125.34375 7.324219 L 124.152344 15.195312 L 120.738281 15.195312 L 121.140625 13.691406 L 119.628906 13.691406 L 118.757812 15.195312 L 115.34375 15.195312 L 120.808594 7.324219 "/>
<path style=" stroke:none;fill-rule:nonzero;fill:rgb(11.680603%,40.133667%,63.813782%);fill-opacity:1;" d="M 128.496094 7.324219 L 135.898438 7.324219 L 135.363281 8.59375 L 133.40625 8.59375 L 130.617188 15.195312 L 127.125 15.195312 L 129.914062 8.59375 L 127.960938 8.59375 L 128.496094 7.324219 "/>
<path style=" stroke:none;fill-rule:nonzero;fill:rgb(11.680603%,40.133667%,63.813782%);fill-opacity:1;" d="M 140.707031 8.59375 L 139.566406 11.285156 L 140.191406 11.285156 C 140.351562 11.285156 140.507812 11.253906 140.660156 11.195312 C 140.816406 11.136719 140.910156 11.070312 140.9375 11 L 141.835938 8.878906 C 141.867188 8.808594 141.820312 8.742188 141.699219 8.683594 C 141.574219 8.625 141.453125 8.59375 141.332031 8.59375 Z M 134.421875 15.195312 L 137.75 7.324219 L 144.109375 7.324219 C 144.632812 7.324219 145.039062 7.40625 145.339844 7.5625 C 145.636719 7.71875 145.734375 7.914062 145.636719 8.148438 L 144.15625 11.644531 C 144.054688 11.890625 143.773438 12.101562 143.316406 12.28125 C 142.855469 12.460938 142.351562 12.550781 141.792969 12.550781 L 139.03125 12.550781 L 137.914062 15.195312 L 134.421875 15.195312 "/>
<path style=" stroke:none;fill-rule:nonzero;fill:rgb(11.680603%,40.133667%,63.813782%);fill-opacity:1;" d="M 150.109375 12.363281 L 151.019531 8.921875 L 149.015625 12.363281 Z M 149.425781 7.324219 L 153.960938 7.324219 L 152.769531 15.195312 L 149.355469 15.195312 L 149.757812 13.691406 L 148.246094 13.691406 L 147.375 15.195312 L 143.960938 15.195312 L 149.425781 7.324219 "/>
<path style=" stroke:none;fill-rule:nonzero;fill:rgb(11.680603%,40.133667%,63.813782%);fill-opacity:1;" d="M 157.558594 7.324219 L 161.050781 7.324219 L 159.773438 10.34375 L 161.023438 10.34375 L 162.300781 7.324219 L 165.792969 7.324219 L 162.464844 15.195312 L 158.972656 15.195312 L 160.488281 11.613281 L 159.238281 11.613281 L 157.722656 15.195312 L 154.230469 15.195312 L 157.558594 7.324219 "/>
<path style=" stroke:none;fill-rule:nonzero;fill:rgb(11.680603%,40.133667%,63.813782%);fill-opacity:1;" d="M 175.140625 10.0625 L 171.648438 10.0625 L 172.148438 8.875 C 172.230469 8.6875 172.0625 8.59375 171.644531 8.59375 C 171.226562 8.59375 170.976562 8.6875 170.898438 8.875 L 168.886719 13.632812 C 168.851562 13.71875 168.882812 13.789062 168.980469 13.84375 C 169.078125 13.898438 169.214844 13.925781 169.386719 13.925781 C 169.804688 13.925781 170.054688 13.828125 170.136719 13.632812 L 170.867188 11.90625 L 174.359375 11.90625 L 173.3125 14.382812 C 173.214844 14.613281 172.910156 14.804688 172.390625 14.960938 C 171.871094 15.117188 171.292969 15.195312 170.648438 15.195312 L 166.609375 15.195312 C 166.089844 15.195312 165.679688 15.117188 165.378906 14.960938 C 165.082031 14.804688 164.980469 14.613281 165.074219 14.382812 L 167.738281 8.089844 C 167.828125 7.878906 168.0625 7.699219 168.4375 7.550781 C 168.8125 7.402344 169.242188 7.324219 169.730469 7.324219 L 173.980469 7.324219 C 174.621094 7.324219 175.136719 7.402344 175.523438 7.550781 C 175.914062 7.699219 176.0625 7.878906 175.976562 8.089844 L 175.140625 10.0625 "/>
</g>
</svg>

<svg xmlns="http://www.w3.org/2000/svg" width="176pt" height="28.387" viewBox="0 0 176 21.29"><defs><clipPath id="a"><path d="M0 0h34v21.29H0Zm0 0"/></clipPath></defs><path d="M3.559 11.758a.85.85 0 0 0 .046.73c11.227.09 19 3.676 25.805 8.242.328-.003.512-.128.375-.535-2.043-1.914-7.004-4.949-6.914-5.402 1.004-.738 2.617-1 2.434-1.754-2.965-.976-6.485-1.5-10.508-1.601.816-1.176 1.617-2.133 2.265-3.63.313.294.653.485 1.008.618 1.028.011 1.317-.395 1.395-.918-.652 0-1.3-.004-1.953-.004q-.252-.064-.153-.414c1.727-.035 3.883.062 4.016-.442.008-.312-.71-.609-.43-.875.961-.242 1.621-.605 1.625-1.23-.398.195-.77.297-.941-.25.418-.434.61-.922.469-1.484q-.499.486-1.004.972c-.082-.68.11-1.695-.887-1.25-.687.754.434 1.461.262 2.125-.524 1.317-1.207 2.028-3.938 2.016-.77-.012-1.996-.676-1.949-1.149q-.304-.567.258-1.585l-.367.351-.059-.543c-.516.606-.715 1.102-.7 1.52-.073-.176.032.011-.484-.77-.816 1.988 2.25 2.184 2.825 2.7-1.32.183-2.63.054-3.938-.012q-.27.175-.21.539c.66.832 2.21.73 2.109 1.144-.625 1.153-1.536 1.633-2.504 2.305-.469.305-3.457.445-7.953.586" style="stroke:none;fill-rule:evenodd;fill:#1e66a3;fill-opacity:1"/><g clip-path="url(#a)"><path d="M16.742-.004c9.219 0 16.742 4.785 16.742 10.649s-7.523 10.644-16.742 10.644C7.52 21.29 0 16.508 0 10.645S7.52-.004 16.742-.004m1.09.992c8.434.133 14.734 4.59 14.023 9.922-.71 5.332-8.171 9.574-16.605 9.442-8.434-.133-14.734-4.59-14.023-9.922C1.937 5.098 9.395.855 17.832.988" style="stroke:none;fill-rule:evenodd;fill:#1e66a3;fill-opacity:1"/></g><path d="m51.586 7.324-3.52 3.63.606 4.241h-3.777l.25-3.734-1.633 3.734H40.02l3.328-7.87h3.492l-1.426 3.37 2.68-3.37zM56.27 8.875l-2.012 4.758q-.053.129.094.21a.85.85 0 0 0 .41.083q.621 0 .75-.293l2.011-4.758q.118-.28-.507-.281-.625 0-.746.281m5.023-.656L58.719 14.3q-.159.38-.867.636a4.6 4.6 0 0 1-1.567.258h-4.172c-.554 0-.996-.086-1.312-.254q-.48-.252-.317-.64l2.575-6.082q.158-.375.84-.633a4.3 4.3 0 0 1 1.542-.262h4.172c.57 0 1.024.09 1.348.262q.49.258.332.633M63.938 7.324h4.68l-.403 4.055 3.035-4.055h4.652l-3.328 7.871h-3.492l1.89-4.476-3.35 4.476h-2.06l.485-4.476-1.945 4.476h-3.493zM80.21 15.195l1.778-4.203-3.629 4.203h-3.492l3.328-7.87h3.102l-1.86 4.394 3.711-4.395h3.493l-3.329 7.871zM90.918 12.363l.91-3.441-2.004 3.441Zm-.684-5.039h4.54l-1.192 7.871h-3.418l.402-1.504h-1.511l-.871 1.504H84.77zM101.324 8.594l-.715 1.691h.625q.236.001.465-.086.234-.088.281-.195l.477-1.129q.04-.104-.14-.191a.9.9 0 0 0-.368-.09Zm-1.34 3.172-.914 2.16h.625q.236 0 .465-.086.235-.09.278-.195l.675-1.598q.047-.104-.136-.195a.85.85 0 0 0-.368-.086Zm-4.945 3.43 3.328-7.872h6.778q.626.002.953.215.328.21.199.516l-.945 2.23q-.103.247-.57.43a3.3 3.3 0 0 1-1.106.203q.58.049.898.25.321.2.215.445l-1.21 2.864q-.125.298-.63.507-.509.211-1.105.211zM110.781 15.195l1.781-4.203-3.628 4.203h-3.496l3.332-7.87h3.097l-1.855 4.394 3.707-4.395h3.492l-3.328 7.871zM121.492 12.363l.906-3.441-2 3.441Zm-.683-5.039h4.535l-1.192 7.871h-3.414l.403-1.504h-1.512l-.871 1.504h-3.414zM128.496 7.324h7.402l-.535 1.27h-1.957l-2.789 6.601h-3.492l2.79-6.601h-1.954zM140.707 8.594l-1.14 2.691h.624q.24 0 .47-.09c.155-.058.25-.125.276-.195l.899-2.121q.046-.107-.137-.195a.9.9 0 0 0-.367-.09Zm-6.285 6.601 3.328-7.87h6.36c.523 0 .93.081 1.23.237q.444.235.297.586l-1.48 3.497q-.154.368-.84.636c-.462.18-.965.27-1.524.27h-2.762l-1.117 2.644zM150.11 12.363l.91-3.441-2.004 3.441Zm-.684-5.039h4.535l-1.191 7.871h-3.415l.403-1.504h-1.512l-.871 1.504h-3.414zM157.559 7.324h3.492l-1.278 3.02h1.25l1.278-3.02h3.492l-3.328 7.871h-3.492l1.515-3.582h-1.25l-1.515 3.582h-3.493zM175.14 10.063h-3.492l.5-1.188q.123-.28-.503-.281-.628 0-.747.281l-2.011 4.758q-.052.129.093.21a.84.84 0 0 0 .407.083q.627 0 .75-.293l.73-1.727h3.492l-1.047 2.477q-.144.345-.921.578a6 6 0 0 1-1.743.234h-4.039q-.78 0-1.23-.234-.446-.234-.305-.578l2.664-6.293q.136-.316.7-.54a3.5 3.5 0 0 1 1.292-.226h4.25q.963.002 1.543.227.585.222.454.539z" style="stroke:none;fill-rule:nonzero;fill:#1e66a3;fill-opacity:1"/></svg>
